X:1
T:Title
%%score { ( 1 3 ) | ( 2 4 ) }
L:1/8
Q:1/4=106
M:4/4
K:F
V:1 treble nm="Grand Piano"
V:3 treble 
V:2 bass 
V:4 bass 
V:1
 c2 c>c c2 c>A | F2 F2 F4 | [EG]2 [EG]>[EG] [GB]2 [EG]>E | F2 A2 c4 | c2 c>c c2 c>A | F2 F2 F4 | %6
w: Samuel~W.~Beazley * * * * *||||||
 [EG] [EG]2 [FA] [EG]2 [Gc]>[Ad] |[M:7/8] [Ge]2 [Fd]2 [Ec]3 |[M:3/8] [Ec]3 |[M:4/4] F2 F>G A2 d2 | %10
w: ||||
 c6 z2 | z4 z2 d2 | c6 z2 | F2 F>G A2 c2 |[M:9/8] B2 d- d/d/ c2- c [DFB]2 | %15
w: |||||
[M:4/4] [CFA] [Fc]2 [A,F] [CFA]2 [B,EG]2 | [A,F]6 z2 |] %17
w: ||
V:2
 [F,A,F]2 [F,A,F]>[F,A,F] [F,A,F]2 [F,A,F]>[F,CF] | [F,A,C]2 [F,B,D]2 [F,A,C]4 | %2
 [C,C]2 [C,C]>[C,C] [C,C]2 [C,C]>[C,B,C] | [F,A,C]2 [F,CF]2 [F,A,F]4 | %4
 [F,A,F]2 [F,A,F]>[F,A,F] [F,A,F]2 [F,A,F]>[F,CF] | [F,A,C]2 [F,B,D]2 [F,A,C]4 | %6
 [C,C] [C,C]2 [C,C] [C,C]2 [E,C]>[F,C] |[M:7/8] [G,C]2 [G,=B,]2 [C,C]3 |[M:3/8] [C,B,]3 | %9
[M:4/4] [F,A,C]2 [F,A,C]>[F,B,C] [F,CF]2 [F,B,F]2 | [A,F]2 B,2 C2 F,2 | %11
 [C,C]2 [C,C][C,C] [C,C]2 CC | z2 B,2 A,2 [F,A,F]2 | [F,A,C]2 [F,A,C]>[F,B,C] [F,CF]2 [F,A,F]2 | %14
[M:9/8] [F,DF]2 [F,B,F]- [F,B,F]/[F,B,F]/ [F,A,F]2- [F,A,F] B,,2 |[M:4/4] C, [C,A,]2 C, C,2 C,2 | %16
 F,6 z2 |] %17
V:3
 x8 | x8 | x8 | x8 | x8 | x8 | x8 |[M:7/8] x7 |[M:3/8] x3 |[M:4/4] x8 | z2 G2 A2 [CAc]2 | %11
 [GB]2 [GB][Ac] [Be]2 BB | [CA]2 G2 F2 c2 | x8 |[M:9/8] x9 |[M:4/4] x8 | x8 |] %17
V:4
 x8 | x8 | x8 | x8 | x8 | x8 | x8 |[M:7/8] x7 |[M:3/8] x3 |[M:4/4] x8 | F,6 z2 | z4 z2 E,2 | %12
 F,6 z2 | x8 |[M:9/8] x9 |[M:4/4] x8 | x8 |] %17

